src/assets/filled/Received.svg

<svg width="24" height="24" viewBox="0 0 24 24"  xmlns="http://www.w3.org/2000/svg">
<path d="M4.71 18.1899C4.81 18.2299 4.9 18.2499 5 18.2499H15.27C15.68 18.2499 16.02 17.9099 16.02 17.4999C16.02 17.0899 15.68 16.7499 15.27 16.7499H6.81L19.53 4.02994C19.82 3.73994 19.82 3.25994 19.53 2.96994C19.24 2.67994 18.76 2.67994 18.47 2.96994L5.75 15.6899V7.22994C5.75 6.81994 5.41 6.47994 5 6.47994C4.59 6.47994 4.25 6.81994 4.25 7.22994V17.4999C4.25 17.5999 4.27 17.6899 4.31 17.7899C4.38 17.9699 4.53 18.1199 4.71 18.1899Z" />
<path d="M20.5 21.25H3.5C3.09 21.25 2.75 21.59 2.75 22C2.75 22.41 3.09 22.75 3.5 22.75H20.5C20.91 22.75 21.25 22.41 21.25 22C21.25 21.59 20.91 21.25 20.5 21.25Z" />
</svg>

<?xml version="1.0" encoding="UTF-8"?>
<svg width="24" height="24" viewBox="0 0 24 24" xmlns="http://www.w3.org/2000/svg">
 <path d="m4.71 18.19c0.1 0.04 0.19 0.06 0.29 0.06h10.27c0.41 0 0.75-0.34 0.75-0.75s-0.34-0.75-0.75-0.75h-8.46l12.72-12.72c0.29-0.29 0.29-0.77 0-1.06s-0.77-0.29-1.06 0l-12.72 12.72v-8.46c0-0.41-0.34-0.75-0.75-0.75s-0.75 0.34-0.75 0.75v10.27c0 0.1 0.02 0.19 0.06 0.29 0.07 0.18 0.22 0.33 0.4 0.4z"/>
 <path d="m20.5 21.25h-17c-0.41 0-0.75 0.34-0.75 0.75s0.34 0.75 0.75 0.75h17c0.41 0 0.75-0.34 0.75-0.75s-0.34-0.75-0.75-0.75z"/>
</svg>
